dist/release/static/symbols/device/2wd.svg

<?xml version="1.0" encoding="UTF-8" standalone="no"?>
<!-- Created with Inkscape (http://www.inkscape.org/) -->

<svg
   xmlns:dc="http://purl.org/dc/elements/1.1/"
   xmlns:cc="http://creativecommons.org/ns#"
   xmlns:rdf="http://www.w3.org/1999/02/22-rdf-syntax-ns#"
   xmlns:svg="http://www.w3.org/2000/svg"
   xmlns="http://www.w3.org/2000/svg"
   xmlns:sodipodi="http://sodipodi.sourceforge.net/DTD/sodipodi-0.dtd"
   xmlns:inkscape="http://www.inkscape.org/namespaces/inkscape"
   width="24"
   height="24"
   viewBox="0 0 24 24"
   id="svg2"
   version="1.1"
   inkscape:version="0.91 r13725"
   sodipodi:docname="2wd.svg">
  <defs
     id="defs4">
    <inkscape:perspective
       id="perspective10"
       inkscape:persp3d-origin="372.04724 : 350.78739 : 1"
       inkscape:vp_z="744.09448 : 526.18109 : 1"
       inkscape:vp_y="0 : 1000 : 0"
       inkscape:vp_x="0 : 526.18109 : 1"
       sodipodi:type="inkscape:persp3d" />
    <inkscape:perspective
       sodipodi:type="inkscape:persp3d"
       inkscape:vp_x="0 : 526.18109 : 1"
       inkscape:vp_y="0 : 1000 : 0"
       inkscape:vp_z="744.09448 : 526.18109 : 1"
       inkscape:persp3d-origin="372.04724 : 350.78739 : 1"
       id="perspective2390" />
    <inkscape:perspective
       sodipodi:type="inkscape:persp3d"
       inkscape:vp_x="0 : 526.18109 : 1"
       inkscape:vp_y="0 : 1000 : 0"
       inkscape:vp_z="744.09448 : 526.18109 : 1"
       inkscape:persp3d-origin="372.04724 : 350.78739 : 1"
       id="perspective2403" />
    <inkscape:perspective
       id="perspective2437"
       inkscape:persp3d-origin="32 : 21.333333 : 1"
       inkscape:vp_z="64 : 32 : 1"
       inkscape:vp_y="0 : 1000 : 0"
       inkscape:vp_x="0 : 32 : 1"
       sodipodi:type="inkscape:persp3d" />
    <inkscape:perspective
       id="perspective11498"
       inkscape:persp3d-origin="32 : 21.333333 : 1"
       inkscape:vp_z="64 : 32 : 1"
       inkscape:vp_y="0 : 1000 : 0"
       inkscape:vp_x="0 : 32 : 1"
       sodipodi:type="inkscape:persp3d" />
  </defs>
  <sodipodi:namedview
     id="base"
     pagecolor="#ffffff"
     bordercolor="#666666"
     borderopacity="1.0"
     inkscape:pageopacity="0.0"
     inkscape:pageshadow="2"
     inkscape:zoom="11.313709"
     inkscape:cx="-7.0839719"
     inkscape:cy="6.4416713"
     inkscape:document-units="px"
     inkscape:current-layer="layer3"
     showgrid="true"
     units="px"
     inkscape:window-width="1288"
     inkscape:window-height="883"
     inkscape:window-x="528"
     inkscape:window-y="86"
     inkscape:window-maximized="0">
    <inkscape:grid
       type="xygrid"
       id="grid4136" />
  </sodipodi:namedview>
  <metadata
     id="metadata7">
    <rdf:RDF>
      <cc:Work
         rdf:about="">
        <dc:format>image/svg+xml</dc:format>
        <dc:type
           rdf:resource="http://purl.org/dc/dcmitype/StillImage" />
        <dc:title></dc:title>
      </cc:Work>
    </rdf:RDF>
  </metadata>
  <g
     inkscape:label="Layer 1"
     inkscape:groupmode="layer"
     id="layer1"
     transform="translate(0,-1028.3622)" />
  <g
     inkscape:groupmode="layer"
     id="layer3"
     inkscape:label="Layer 2">
    <path
       style="opacity:1;fill:#7c3100;fill-opacity:1;stroke:none;stroke-width:1;stroke-miterlimit:4;stroke-dasharray:none;stroke-opacity:1"
       d="M 10 7.0019531 A 0.99872001 0.99872001 0 0 0 9.2753906 7.3125 L 7.0878906 9.6191406 L 4.3574219 10.011719 A 0.99872001 0.99872001 0 0 0 3.7929688 10.292969 L 2.2929688 11.792969 A 0.99872001 0.99872001 0 0 0 2.0019531 12.5 L 2.0019531 14 A 0.99872001 0.99872001 0 0 0 3 14.998047 L 4.0507812 14.998047 A 0.99872001 0.99872001 0 0 0 4.2128906 14.984375 C 4.4802219 16.06444 5.3737986 16.998047 6.5 16.998047 C 7.6255842 16.998047 8.5190797 16.065584 8.7871094 14.986328 A 0.99872001 0.99872001 0 0 0 8.9453125 14.998047 L 11 14.998047 L 15 14.998047 L 15.050781 14.998047 A 0.99872001 0.99872001 0 0 0 15.212891 14.984375 C 15.480222 16.06444 16.373799 16.998047 17.5 16.998047 C 18.625584 16.998047 19.51908 16.065584 19.787109 14.986328 A 0.99872001 0.99872001 0 0 0 19.945312 14.998047 L 21 14.998047 A 0.99872001 0.99872001 0 0 0 21.998047 14 L 21.998047 11 A 0.99872001 0.99872001 0 0 0 21 10.001953 L 19.535156 10.001953 L 17.830078 7.4453125 A 0.99872001 0.99872001 0 0 0 17 7.0019531 L 10 7.0019531 z M 10.916016 9.9980469 L 12.001953 9.9980469 L 12.001953 10.001953 L 10.912109 10.001953 L 10.916016 9.9980469 z M 14.998047 9.9980469 L 16 9.9980469 L 16.003906 10.001953 L 14.998047 10.001953 L 14.998047 9.9980469 z "
       id="path4318" />
    <path
       style="opacity:1;fill:#ff6600;fill-opacity:1;stroke:none;stroke-width:1;stroke-miterlimit:4;stroke-dasharray:none;stroke-opacity:1"
       d="M 10,8 7.5742188,10.558594 4.5,11 3,12.5 3,14 4.0507812,14 C 4.2883568,12.836122 5.3121219,12.000129 6.5,12 c 1.1864102,0.002 2.2080318,0.837558 2.4453125,2 L 11,14 l 4,0 0.05078,0 c 0.237576,-1.163878 1.261341,-1.999871 2.449219,-2 1.18641,0.002 2.208032,0.837558 2.445312,2 L 21,14 21,11 19,11 17,8 10,8 Z m 0.5,1 2.5,0 0,2 -4.5,0 2,-2 z m 3.5,0 2.5,0 1.5,2 -4,0 0,-2 z M 6.5,13 A 1.5,1.5 0 0 0 5,14.5 1.5,1.5 0 0 0 6.5,16 1.5,1.5 0 0 0 8,14.5 1.5,1.5 0 0 0 6.5,13 Z m 11,0 A 1.5,1.5 0 0 0 16,14.5 1.5,1.5 0 0 0 17.5,16 1.5,1.5 0 0 0 19,14.5 1.5,1.5 0 0 0 17.5,13 Z"
       id="path4215"
       inkscape:connector-curvature="0" />
  </g>
</svg>

<svg xmlns="http://www.w3.org/2000/svg" width="24" height="24" viewBox="0 0 24 24"><path d="M10 7.002a.999.999 0 0 0-.725.31L7.088 9.62l-2.73.393a.999.999 0 0 0-.565.281l-1.5 1.5a.999.999 0 0 0-.291.707V14a.999.999 0 0 0 .998.998h1.05a.999.999 0 0 0 .163-.014c.267 1.08 1.16 2.014 2.287 2.014 1.126 0 2.02-.932 2.287-2.012a.999.999 0 0 0 .158.012H15.05a.999.999 0 0 0 .163-.014c.267 1.08 1.16 2.014 2.287 2.014 1.126 0 2.02-.932 2.287-2.012a.999.999 0 0 0 .158.012H21a.999.999 0 0 0 .998-.998v-3a.999.999 0 0 0-.998-.998h-1.465L17.83 7.445a.999.999 0 0 0-.83-.443h-7zm.916 2.996h1.086v.004h-1.09l.004-.004zm4.082 0H16l.004.004h-1.006v-.004z" fill="#7c3100"/><path d="M10 8l-2.426 2.559L4.5 11 3 12.5V14h1.05a2.5 2.5 0 0 1 2.45-2 2.5 2.5 0 0 1 2.445 2H15.05a2.5 2.5 0 0 1 2.45-2 2.5 2.5 0 0 1 2.445 2H21v-3h-2l-2-3h-7zm.5 1H13v2H8.5l2-2zM14 9h2.5l1.5 2h-4V9zm-7.5 4A1.5 1.5 0 0 0 5 14.5 1.5 1.5 0 0 0 6.5 16 1.5 1.5 0 0 0 8 14.5 1.5 1.5 0 0 0 6.5 13zm11 0a1.5 1.5 0 0 0-1.5 1.5 1.5 1.5 0 0 0 1.5 1.5 1.5 1.5 0 0 0 1.5-1.5 1.5 1.5 0 0 0-1.5-1.5z" fill="#f60"/></svg>
